packages/ui-icons/svg/Solid/rubric-dark.svg

<svg viewBox="0 0 1920 1920" version="1.1" xmlns="http://www.w3.org/2000/svg">
    <path d="M1185.94118,-2.5243549e-29 C1259.46588,-2.5243549e-29 1321.58353,47.3223529 1344.96235,112.941176 L1344.96235,112.941176 L1807.11765,112.941176 L1807.11765,1920 L113,1920 L113,112.941176 L575.155294,112.941176 C598.534118,47.3223529 660.651765,-2.5243549e-29 734.176471,-2.5243549e-29 L734.176471,-2.5243549e-29 Z M1242.41176,1468.23529 L903.588235,1468.23529 L903.588235,1581.17647 L1242.41176,1581.17647 L1242.41176,1468.23529 Z M790.647059,1242.35294 L451.823529,1242.35294 L451.823529,1581.17647 L790.647059,1581.17647 L790.647059,1242.35294 Z M1468.29412,1242.35294 L903.588235,1242.35294 L903.588235,1355.29412 L1468.29412,1355.29412 L1468.29412,1242.35294 Z M790.647059,677.647059 L451.823529,677.647059 L451.823529,1016.47059 L790.647059,1016.47059 L790.647059,677.647059 Z M1242.41176,903.529412 L903.588235,903.529412 L903.588235,1016.47059 L1242.41176,1016.47059 L1242.41176,903.529412 Z M1468.29412,677.647059 L903.588235,677.647059 L903.588235,790.588235 L1468.29412,790.588235 L1468.29412,677.647059 Z M1185.94118,112.941176 L734.176471,112.941176 C703.117647,112.941176 677.705882,138.24 677.705882,169.411765 L677.705882,169.411765 L677.705882,338.823529 L1242.41176,338.823529 L1242.41176,169.411765 C1242.41176,138.24 1217,112.941176 1185.94118,112.941176 L1185.94118,112.941176 Z" stroke="none" stroke-width="1" fill-rule="evenodd"/>
</svg>

<svg viewBox="0 0 1920 1920" xmlns="http://www.w3.org/2000/svg">
    <path d="M1185.941 0c73.525 0 135.643 47.322 159.021 112.941h462.156V1920H113V112.941h462.155C598.535 47.322 660.652 0 734.176 0Zm56.47 1468.235H903.589v112.941h338.824v-112.94Zm-451.764-225.882H451.824v338.823h338.823v-338.823Zm677.647 0H903.588v112.941h564.706v-112.941ZM790.647 677.647H451.824v338.824h338.823V677.647Zm451.765 225.882H903.588v112.942h338.824V903.529Zm225.882-225.882H903.588v112.941h564.706v-112.94Zm-282.353-564.706H734.176c-31.058 0-56.47 25.299-56.47 56.47v169.413h564.706V169.412c0-31.172-25.412-56.47-56.47-56.47Z" fill-rule="evenodd"/>
</svg>
